!!!OTL: Yiwangyulai yiwangliang
!!!ARE: Asia, China,ˇGuangdong Haifeng
!! II, 355
!!!SCT: C1886
!!!YEM: Copyright 1995, estate of Helmut Schaffrath.
**kern
*ICvox
*Ivox
*M2/4
*k[b-e-]
*B-:
{8gg
8gg
8ddd
8ddd
=1
16gg
16gg
16gg
16ddd
8ccc
16ddd
16ccc
=2
8bb-
8gg
8bb-
8ccc
=3
16bb-
16ccc
16aa
16gg
8.ff
16gg
=4
8ee-
16ee-
16ff
8.gg
16bb-
=5
16ff
16gg
16ff
16ee-
4cc}
=6
{16ddd
16fff
16ddd
16ccc
16bb-
16ccc
16ddd
16fff
=7
2ccc}
==
!!!AGN: Xiaodiao, YÅge
!!!AMT: simple duple
!!!AIN: vox
!!!EED: Helmut Schaffrath
!!!EEV: 1.0
*-
